common/resources/fonts/svg/combo-chart.svg

<svg width="1024" height="1024" viewBox="0 0 1024 1024">
    <path d="M433.64 304.193l131.407 122.762L812 144.42 745.588 81 559.631 291.128l-124.573-113.28L222 423.534l62.948 61.96zM232 957h140V708H232v249zm210 6h140V453H442v510zm210-388v382h140V575H652z" fill-rule="evenodd"/>
</svg>

<?xml version="1.0" encoding="UTF-8"?>
<svg width="1024px" height="1024px" viewBox="0 0 1024 1024" version="1.1" xmlns="http://www.w3.org/2000/svg" xmlns:xlink="http://www.w3.org/1999/xlink">
    <!-- Generator: Sketch 46.2 (44496) - http://www.bohemiancoding.com/sketch -->
    <title>combo-chart</title>
    <desc>Created with Sketch.</desc>
    <defs></defs>
    <g id="Page-1" stroke="none" stroke-width="1" fill="none" fill-rule="evenodd">
        <g id="combo-chart" fill="#000000">
            <polygon id="Combined-Shape" points="433.639914 304.19304 565.046658 426.954949 812 144.420258 745.588257 81 559.631227 291.128354 435.058161 177.847983 222 423.533721 284.948306 485.493568"></polygon>
            <path d="M232,957 L372,957 L372,708 L232,708 L232,957 L232,957 L232,957 Z M442,963 L582,963 L582,453 L442,453 L442,963 L442,963 L442,963 Z M652,575 L652,957 L792,957 L792,575 L652,575 L652,575 L652,575 Z" id="Shape"></path>
        </g>
    </g>
</svg>
